X: 38
T: Margaret MacKinnon of Digg
C:Phil Cunningham
D:Airs and Grace
M:3/4
L:1/4
K:G
D2 E|G2 A|B/(d/d2)| c2 B| A2 G| E2 F|
G2 A| E3/ D/ C|D2 E| G2 A| B/(d/d2)|c2 B|
A2 G| E2 D|1E3|E3 :|2 E3 |E2 e||
e2 A| A2 B| c/(d/d2) | B2 D/d/| c2 B| A2 G| E/(G/G2)| E2 e|
e2 A| A2 B| c/(d/d2) | B2 D/d/| c2 B| A2 G| E3| E2 e|
e2 A| A2 B| c/(d/d2) | B2 D/d/| c2 B| A2 G| E/(G/G2)|
E3/ D/ C| D2 E|G2 A| B/(d/d2)| c2 B| A2 G| E2 D| E3| E3 ||

%%sep 2 1 500

